X: 15
T:Loch Lomond
M:2/4
L:1/8
Q:240
R:March
K:G
D|"G"G2GA|"Em"B2BG|"C"A2AG|"D"E2DE|
"G"G2G2|"Em"G2Bd|"C"e4|"D"d3d|
"Em"e2ed|"G"B2Bd|"C"cBAG|"D"E2DE|
"G"G2Bd|"C"e2dB|"D"A4|"G"G3|
